X:1
T:Wanderlied
T:Wanderlied
T:Karl maria von Weber
C:Karl maria von Weber
%%score [ 1 2 3 4 ]
L:1/8
Q:1/4=80
M:6/8
K:Eb
V:1 treble-8 nm="Tenor I"
V:2 treble-8 nm="Tenor II"
V:3 bass nm="Bass I"
V:4 bass nm="Bass II"
V:1
 x5 B{BB}!p! | (BB)B BGB | (Be)B B2"^," e | (e"^cresc."e)e (eB)!f!e |!>(! g6 | e3!>)! z!pp! z A | %6
w: Was|glänzt dort vom Wal- de im|Son- * nen- schein? Hör's|nä- her und nä- * her|brau-|sen. Es|
w: Was|zieht * dort rasch durch den|fin- * ster'n Wald? Und|streift * von Ber- gen zu|Ber-|gen? Es|
w: Wo|Re- * ben glü- hen, dort|braust * der Rhein, Der|Wüth- rich ge- bor- gen sich|mein-|te; Da|
 (A>A)A AAc | (_dd)d c2"^,"!f! e | (!>!e>e)e !>!ece | (!>!e>a)e"^," !^!e2!ff! e | (!>!ee)e !>!eee | %11
w: zieht sich her- un- ter in|düs- te- ren Reih'n, Und|gel- len- de Hör- ner er-|schal- len da- rein, Er-|fül- len die See- le mit|
w: legt sich in näch- tli- chen|Hin- * ter- halt; Das|Hur- * rah jauchzt und die|Büch- * se knallt: Es|fal- len die frän- ki- schen|
w: naht * es schnell wie Ge-|wit- * ter- schein, Und|wirft sich mit rüs- ti- gen|Ar- men hin- ein Und|springt * an's U- fer der|
!>(! !fermata!d3!>)! !fermata!f2 z | z3 z2!p! B | B3 B2 B | (!>!_cB)=A B2 d | f3 !fermata!z3 | %16
w: Grau- sen.|Und|wenn ihr die|schwar- zen Ge- sel- len|fragt:|
w: Scher- gen.|Und|wenn ihr die|schwar- * zen Jä- ger|fragt:|
w: Fein- de.|Und|wenn ihr die|schwar- * zen Schwim- mer|fragt:|
!f! !^!e6 | !^!e6 |!ff! !>!g3 !>!g3 | !>!b3 g3"^," | !>!fff !>!f- f/e/f | (!^!g3 g2) z | %22
w: Das|ist,|das ist|Lüt- zow's|wil- de, ver- we- * ge- ne|Jagd, *|
w: ||||||
w: ||||||
 !>!g3 !>!g3 | !>!b3 g3"^," | !>!fff !>!f- f/e/f | !fermata!e4 z2 |] %26
w: das ist|Lüt- zow's|wil- de ver- we- * ge- ne|Jagd!|
w: ||||
w: ||||
V:2
 x5 G{GG}!p! | (GG)G GEG | G2 G G2"^," B | (B"^cresc."B)B (BB)!f!B |!>(! e6 | B3!>)! z!pp! z A | %6
w: Was|glänzt dort vom Wal- de im|Son- nen- schein? Hör's|nä- her und nä- * her|brau-|sen. Es|
w: Was|zieht * dort rasch durch den|fin- ster'n Wald? Und|streift * von Ber- gen zu|Ber-|gen? Es|
w: Wo|Re- * ben glü- hen, dort|braust der Rhein, Der|Wüth- rich ge- bor- gen sich|mein-|te; Da|
 (A>A)A AAA | (AA)A A2"^,"!f! c | (!>!c>c)c !>!cAc | (!>!c>c)c"^," !^!c2!ff! c | (!>!BB)B !>!=AAA | %11
w: zieht sich her- un- ter in|düs- te- ren Reih'n, Und|gel- len- de Hör- ner er-|schal- len da- rein, Er-|fül- len die See- le mit|
w: legt sich in näch- tli- chen|Hin- * ter- halt; Das|Hur- * rah jauchzt und die|Büch- * se knallt: Es|fal- len die frän- ki- schen|
w: naht * es schnell wie Ge-|wit- * ter- schein, Und|wirft sich mit rüs- ti- gen|Ar- men hin- ein Und|springt * an's U- fer der|
!>(! !fermata!B3!>)! !fermata!d2 z | z3 z2!p! B | B3 B2 B | (!>!_cB)=A B2 d | f3 !fermata!z3 | %16
w: Grau- sen.|Und|wenn ihr die|schwar- zen Ge- sel- len|fragt:|
w: Scher- gen.|Und|wenn ihr die|schwar- * zen Jä- ger|fragt:|
w: Fein- de.|Und|wenn ihr die|schwar- * zen Schwim- mer|fragt:|
!f! !^!e6 | !^!e6 |!ff! !>!e3 !>!e3 | g3 e3"^," | !>!ddd !>!d- d/c/d | (!^!e3 e2) z | !>!e3 !>!e3 | %23
w: Das|ist,|das ist|Lüt- zow's|wil- de, ver- we- * ge- ne|Jagd, *|das ist|
w: |||||||
w: |||||||
 !>!g3 e3"^," | !>!ddd !>!d- d/c/d | !fermata!B4 z2 |] %26
w: Lüt- zow's|wil- de ver- we- * ge- ne|Jagd!|
w: |||
w: |||
V:3
 x5 E,{E,E,}!p! | (E,E,)E, E,E,E, | E,2 E, E,2"^," E, | (G,"^cresc."G,)G, (G,G,)!f!G, |!>(! B,6 | %5
w: Was|glänzt dort vom Wal- de im|Son- nen- schein? Hör's|nä- her und nä- * her|brau-|
w: Was|zieht * dort rasch durch den|fin- ster'n Wald? Und|streift * von Ber- gen zu|Ber-|
w: Wo|Re- * ben glü- hen, dort|braust der Rhein, Der|Wüth- rich ge- bor- gen sich|mein-|
 G,3!>)! z!pp! z A, | (A,>A,)A, A,A,E, | (_F,F,)F, E,2"^,"!f! A, | (!>!A,>A,)A, !>!A,A,A, | %9
w: sen. Es|zieht sich her- un- ter in|düs- te- ren Reih'n, Und|gel- len- de Hör- ner er-|
w: gen? Es|legt sich in näch- tli- chen|Hin- * ter- halt; Das|Hur- * rah jauchzt und die|
w: te; Da|naht * es schnell wie Ge-|wit- * ter- schein, Und|wirft sich mit rüs- ti- gen|
 (!>!A,>A,)A,"^," !^!A,2!ff! A, | (!>!G,G,)G, !>!_G,G,G, |!>(! !fermata!F,3!>)! !fermata!F,2 z | %12
w: schal- len da- rein, Er-|fül- len die See- le mit|Grau- sen.|
w: Büch- * se knallt: Es|fal- len die frän- ki- schen|Scher- gen.|
w: Ar- men hin- ein Und|springt * an's U- fer der|Fein- de.|
 z3 z2!p! B, | B,3 B,2 B, | (!>!_CB,)=A, B,2 D | F3 !fermata!z3 |!f! !^!E6 | !^!E6 | %18
w: Und|wenn ihr die|schwar- zen Ge- sel- len|fragt:|Das|ist,|
w: Und|wenn ihr die|schwar- * zen Jä- ger|fragt:|||
w: Und|wenn ihr die|schwar- * zen Schwim- mer|fragt:|||
!ff! !>!B,3 !>!B,3 | B,3 B,3"^," | !>!B,B,B, !>!B,- B,/B,/B, | (!^!B,3 B,3) | !>!B,3 !>!B,3 | %23
w: das ist|Lüt- zow's|wil- de, ver- we- * ge- ne|Jagd, *|das ist|
w: |||||
w: |||||
 !>!B,3 B,3"^," | !>!B,B,B, !>!B,- B,/B,/B, | !fermata!G,4 z2 |] %26
w: Lüt- zow's|wil- de ver- we- * ge- ne|Jagd!|
w: |||
w: |||
V:4
 x5 E,{E,E,}!p! | (E,E,)E, E,E,E, | E,2 E, E,2"^," E, | (E,"^cresc."E,)E, (E,E,)!f!E, |!>(! E,6 | %5
w: Was|glänzt dort vom Wal- de im|Son- nen- schein? Hör's|nä- her und nä- * her|brau-|
w: Was|zieht * dort rasch durch den|fin- ster'n Wald? Und|streift * von Ber- gen zu|Ber-|
w: Wo|Re- * ben glü- hen, dort|braust der Rhein, Der|Wüth- rich ge- bor- gen sich|mein-|
 E,3!>)! z!pp! z A,, | (A,,>A,,)A,, A,,A,,A,, | (A,,A,,)A,, A,,2"^,"!f! A, | %8
w: sen. Es|zieht sich her- un- ter in|düs- te- ren Reih'n, Und|
w: gen? Es|legt sich in näch- tli- chen|Hin- * ter- halt; Das|
w: te; Da|naht * es schnell wie Ge-|wit- * ter- schein, Und|
 (!>!A,>A,)A, !>!A,A,A, | (!>!A,>A,)A,"^," !^!A,2!ff! A,, | (!>!B,,B,,)B,, !>!C,C,C, | %11
w: gel- len- de Hör- ner er-|schal- len da- rein, Er-|fül- len die See- le mit|
w: Hur- * rah jauchzt und die|Büch- * se knallt: Es|fal- len die frän- ki- schen|
w: wirft sich mit rüs- ti- gen|Ar- men hin- ein Und|springt * an's U- fer der|
!>(! !fermata!B,,3!>)! !fermata!B,,3 | z3 z2!p! B,, | B,,3 B,,2 B,, | (!>!_C,B,,)=A,, B,,2 D, | %15
w: Grau- sen.|Und|wenn ihr die|schwar- zen Ge- sel- len|
w: Scher- gen.|Und|wenn ihr die|schwar- * zen Jä- ger|
w: Fein- de.|Und|wenn ihr die|schwar- * zen Schwim- mer|
 F,3 !fermata!z3 |!f! !^!E6 | !^!E6 |!ff! !>!E,3 !>!E,3 | E3 E,3"^," | !>!B,B,B, !>!B,- B,/B,/B, | %21
w: fragt:|Das|ist,|das ist|Lüt- zow's|wil- de, ver- we- * ge- ne|
w: fragt:||||||
w: fragt:||||||
 (!^!E,3 E,3) | !>!E,3 !>!E,3 | !>!E3 E,3"^," | !>!B,B,B, !>!B,,- B,,/B,,/B,, | !fermata!E,4 z2 |] %26
w: Jagd, *|das ist|Lüt- zow's|wil- de ver- we- * ge- ne|Jagd!|
w: |||||
w: |||||

